X: 3
T: The Dogs Among The Bushes
R: reel
M: 4/4
L: 1/8
K: Gmix
|BG~G2 DG~G2|BGAB cedc|BG~G2 DGBG|AFAc fdcA|BG~G2 DG~G2|BGAB cedc|BABc defd|cAFe fdcA:||g3g2 agf|dgga bgaf|dffe fgfd|cdfg afgf|dggf gagf|dgga bgag|bggf d3e|f2fe fdcA:||


Tune 595	Setting 26745

